X: 1
T: Cold and Raw   [Em]
T: Oil of Barley
T: Stingo
O: Barnes v.1
%Q: 110
R: Jig
H: Many versions of this tune exist, with many titles.
Z: 2015 John Chambers <jc:trillian.mit.edu>
M: 6/8
L: 1/8
K: Em
|:\
"Em"E2E B2A | "G"Bcd "(D)"D2D |\
"Em"E2E B2A | "C"E3 [1 G3 :|2 "D7"F3 |:\
"G"G2G G2F/G/ | "D"A2A A2A |
"G"B2B "C"e2e | "G"B3 "D"d3 |\
"Em"G2G G2F/G/ | "D"A2A A>Bc |\
"G"BA>G "D(Bm)"FGD | "Em"E3 [1 "D7"F3 :|[2 "(B7)"G3 :|

%%sep 1 1 500
%%sep 1 1 500
